X:41
T: DORT UNT IN SELBEN GRUENDLA
N: E0655
O: Europa, Mitteleuropa, Deutschland; Oesterreich, Boehmen
R: Liebes - Lied
M: 4/4
L: 1/8
K: Bb
F2 | B2B2B2B2 | d2d2z2
cd | e2d2dcBd | c4z2
df | e2d2cdcB | A2F2z2
FA | c2c2c2Bc | e2d2z2
cd | e2d2B2c2 | B4z2

@@@ Tune index: 4354
